X:67
T:Frost is All Over, The
R:jig
H:More common versions are #206, #263
H:There is another tune by the same name, #202
Z:id:hn-jig-67
M:6/8
K:D
~d3 edc|dAF GFE|DFA dFA|Bcd efg|fed edc|dAF GFE|DFA dFA|B2c d3:|
|:~f3 ~a3|~g3 bag|f2a afd|1 ~g3 efg|fef afd|~g3 bag|fga efg|
fdc d3:|2 ~g3 e2g|fga efg|fdB AFA|Bcd ece|fd/e/f gfe||
<end>
<start>
